!!!OTL: Der Ritt durch den Wald
!!!ARE: Europa, Mitteleuropa, Deutschland
!!!SCT: A0189
!!!YEM: Copyright 1995, estate of Helmut Schaffrath.
**kern
*ICvox
*Ivox
!! Mixed meters:  4/2; 6/2
*M4/2
*k[b-e-]
*g:
{1g
=1
2b-
2b-
2cc
2cc
=2
1dd
1g}
=3
{1dd
=4
*M6/2
2.cc
4dd
2ee
1ffn
2ee
=5
*M4/2
2.ffn
4ee
2dd
4cc
4b-
=6
0cc
=7
1r}
{1ffn
=8
2ffn
2dd
2ffn
2gg
=9
2ffn
2ee
1dd}
=10
{1ffn
=11
2ee-
2dd
2dd
2b-
=12
1.cc}
{2dd
=13
2.dd
4cc
2b-
4a
4g
=14
0a
=15
1r}
{1a
=16
2a
2a
2dd
2cc
=17
2b-
4a
4g
2a
2a
=18
1b-
2r}
{2ffn
=19
2ffn
2dd
2ee-
2gg
=20
2ffn
2ee
1dd}
=21
{1ffn
2ee-
2dd
=22
2dd
2b-}
{1cc
=23
1.dd
4cc
4b-
=24
2b-
4a
4g
1a
=25
1g}
==
!!!AGN: Romanze, Ballade, Lied
!! 68 Lieder (c. 1542) No. 18.
!!!ONB: ESAC (Essen Associative Code) Database: ALTDEU
!!!AMT: irregular
!!!AIN: vox
!!!EED: Helmut Schaffrath
!!!EEV: 1.0
*-
